!!!COM: Anon.
!!!OTL: The First Wife Laughs
!!!ODT: <1918//
!!!MPN: Aratsiris [Yellow Hair]
!!!MLC: Fort Berthold Reservation, North Dakota, United States of America
!! Song was recorded during either the summer of 1912, 1915, or 1918.
!!!AGN: monody
!!!AST: Mandan Garden Songs
!!!AMT: irregular
!!!RWG: Transcribed pitches, durations, and meters are only approximate.
!! Drum not recorded.
**kern
*ICvox
*Ifemale
*clefG2
*k[b-e-]
*M2/4
*MM48
=1-
8a
8a
8g
8g
=2
8a
8a
4a
=3
8g
8g
8.f
16d
*M3/4
=4
8f
8g
16g
8f
16d
32f
16.d
16d
16d
*M2/4
=5
8B-
[8B-
4B-]
=6
16g
8.f
4a
=7
8g
8g
32a
16.g
16.g
32f
=8
8d
[8f
4f]
=9
8f
8g
4f
=10
(12d
12d
12d)
(12d
12d
12d)
=11
2B-
==
*-
!!!CNT: Hidatsa
!!!TXO: Hidatsa
!!!OCY: United States
!!!OCL: Frances Densmore
!!!YOR: Frances Densmore, "Mandan and Hidatsa Music",
!!!YOR: Bulletin 80, page 60, No. 18
!!!PPR: Smithsonian Institution, Bureau of American Ethnology
!!!PPR: Government Printing Office
!!!PDT: 1923
!!!PPP: Washington, DC, United States of America
!!!YEC: Electronic Copyright 2000 David Huron
!!!YER: August 2000
!!!YEN: United States of America
!!!ENC: David Huron
!!!RDT: August 16, 2000
!!!EEV: Release 1.0
!!!AIN: tom, vox
